X: 10502
T: the BLUE BELL OF SCOTLAND
Q: "Andante"
%R: march, strathspey
B: "Edinburgh Repository of Music" v.1 p.50 #2
F: http://digital.nls.uk/special-collections-of-printed-music/pageturner.cfm?id=87776133
Z: 2015 John Chambers <jc:trillian.mit.edu>
M: C
L: 1/8
K: G
d |\
g2 {g}fe d2 (3(efg) | BB {d}c>A G3 d |\
g2 f{g}e d2 (ef/g/) | BB {d}cA G3 :|
|: d/>c/ |\
BGBd g2 {f}ef/g/ | {g}fd {f}e^c d2 de/f/|\
g2 {g}f{g}e d2 (d/c/)(e/c/) | BB {d}cA G3 :|
